X:1
T:Gegrüsset seyst du Maria
T:André Vierendeels
T:Melody by Georg Vogler (1625) (Soprano voice) 
T:Source : Catechismus---Würzburg---J.Volmari---1652. Editor : André Vierendeels (21/09/17).
T:Notes : Original clefs : C1, other voices supplied editorially Original note values have been halved Text Middle German
T:Gegrüsset seyst du Maria
T:©
T:©
C:André Vierendeels
Z:©
%%score [ 1 2 3 ]
L:1/8
Q:1/4=120
M:2/2
K:C
V:1 treble nm="Soprano" snm="S"
V:2 treble nm="Alto" snm="A"
V:3 bass nm="Bass" snm="B"
V:1
"^1)" c4 c2 c2 | c2 A2 G2 G2 | d3 e d2 c2 | B2 A2 G3 A | !fermata!E2 c2 c2 B2 | B2 A2 c4 | %6
w: Ge- grüs- set|seyst _ du, Ma-|ri- * a, du|bist voll Gnad und|Zier, der Kö- nig|al- ler Kö-|
w: Du bist ge-|be- ne- dey- et,|un- * der den|Wei- bern all, _|_ ge- be- ne-|dey- * et|
 d2 d2 d2 d2 | e2 e2 d3 c | !fermata!d4 e3 d | e3 d c4 | d2 d2 e2 d2 | c4 B4 | c8 |] %13
w: * ni- gen, Ma-|ri- a ist mit|dir, dir _|_ _ _|Ma- ri- * a|sin- gen|wir.|
w: sey die Frucht dei-|nes Leibs ohn _|Zahl, Zahl _|_ _ _|* viel hun- dert|tau- send|mahl.|
V:2
"^2)""^1)" z2 E2 G2 A2 | G2 C2 E2 D2 | F4 G2 A2 | D2 F2 D3 F | !fermata!C2 A2 E2 G2 | DE F2 E2 A2 | %6
w: Ge- grüs- set|seyst _ du, Ma-|ri- a, du|bist voll Gnad und|Zier, der Kö- nig|al- * ler Kö- *|
w: Ge- grüst seyst|du, Ma- ri- *|* a, mit|Gott hast du ein|Kind, wie wür- dig|rein _ und un- be-|
 F2 G2 A2 G2 | E2 G2 B3 A | !fermata!G4 G3 F | G3 F G2 E2 | A2 B2 G2 B2 | E2 GF D4 | E8 |] %13
w: * ni- gen, Ma-|ri- a ist mit|dir, dir _|_ _ _ _|Ma- ri- * a|sin- * * gen|wir.|
w: fleckt _ _ an|Leib nd See- len|sind, sind _|_ _ _ _|Ma ri- * a|dich _ _ dein|Kind.|
V:3
"^3)""^1)""^4)" C,4 C,2 A,,2 | E,2 F,2 C,2 G,2 | D,3 C, G,2 A,2 | G,2 D,2 G,3 F, | %4
w: Ge- grüs- set|seyst _ du Ma-|ri- * a, du|bist voll Gnad und|
w: Die Hoch- hei-|lig Drey- Fal- tig-|keit, _ _ hat|in dein leib ge-|
 !fermata!C,2 F,2 A,2 G,2 | G,2 D,2 C,2 F,2 | D,2 G,2 D,2 B,,2 | C,2 E,2 G,3 A, | %8
w: Zier, der Kö- nig|al- ler Kö- *|* ni- gen, Ma-|ri- a ist mit|
w: leit, ihrn grö- sten|Schatz der Hei- *|* lig- keit, Ge-|recht Herz- lig- *|
 !fermata!G,4 C,3 D, | C,3 D, E,2 C,2 | F,2 G,2 E,2 G,2 | C,2 E,F, G,4 | C,8 |] %13
w: dir, dir _|_ _ _ _|Ma- ri- * a|sin- * * gen|wir.|
w: keit, keit _|_ _ _ _|ihr Thron _ bist|du _ _ be-|reyt.|

